X: 822
T: The Jolly Corkonian
N:"Collected by Carey"
B:O'Neill's 822
Z:Transcribed by Dan G. Petersen, dangp@post6.tele.dk
M:6/8
L:1/8
K:D
(c/B/)|AFD DED|AGA cBA|GEC CDC|EDC EFG|
AFD DED|AGA cde|dcA GEC|DED D2:|
A|ded dcA|dcd =fed|cdc cBA|GAB cGE|
ded dcA|de=f fed|cBA GEC|DED D2:|


